src/lib/packages/icons/src/assets/filled/video-incoming.svg

<svg width="24" height="24" viewBox="0 0 24 24" fill="none" xmlns="http://www.w3.org/2000/svg">
<path d="M14 5H5C3 5 2 6 2 8V16C2 18 3 19 5 19H14C16 19 17 18 17 16V8C17 6 16 5 14 5ZM12.53 10.03L8.81006 13.75H10C10.414 13.75 10.75 14.086 10.75 14.5C10.75 14.914 10.414 15.25 10 15.25H7C6.902 15.25 6.80489 15.2299 6.71289 15.1919C6.52989 15.1159 6.38411 14.9701 6.30811 14.7871C6.27011 14.6951 6.25 14.598 6.25 14.5V11.5C6.25 11.086 6.586 10.75 7 10.75C7.414 10.75 7.75 11.086 7.75 11.5V12.689L11.47 8.96899C11.763 8.67599 12.238 8.67599 12.531 8.96899C12.824 9.26199 12.823 9.73703 12.53 10.03ZM22 7.56006V16.4399C22 17.0719 21.2689 17.4221 20.7759 17.0271L18.6121 15.29C18.5411 15.233 18.5 15.1469 18.5 15.0559V8.94409C18.5 8.85309 18.5411 8.76696 18.6121 8.70996L20.7759 6.9729C21.2689 6.5779 22 6.92806 22 7.56006Z" fill="currentColor"/>
</svg>

<svg xmlns="http://www.w3.org/2000/svg" width="24" height="24" fill="none"><path fill="currentColor" d="M14 5H5C3 5 2 6 2 8v8c0 2 1 3 3 3h9c2 0 3-1 3-3V8c0-2-1-3-3-3Zm-1.47 5.03-3.72 3.72H10a.75.75 0 0 1 0 1.5H7a.751.751 0 0 1-.75-.75v-3a.75.75 0 0 1 1.5 0v1.189l3.72-3.72a.75.75 0 1 1 1.06 1.061ZM22 7.56v8.88a.753.753 0 0 1-1.224.587l-2.164-1.737a.3.3 0 0 1-.112-.234V8.944a.3.3 0 0 1 .112-.234l2.164-1.737A.753.753 0 0 1 22 7.56Z"/></svg>
